X:1
T:Title
%%score { 1 | 2 }
L:1/8
Q:1/4=100
M:6/8
K:Ab
V:1 treble nm="Grand Piano"
V:2 bass 
V:1
 [Ac]3 [EA][EB][Ac] | [ce]3 [Bd]3 | [Ac]3 [GB][FA][GB] | [Ac]6 | [Ac]3 [EA][EB][Ac] | [ce]3 [Bd]3 | %6
w: D.~O.~Teasley * * *||||||
 [eg]3 [Bf][Be][B=d] | [Be]6 | [ce]3 [Ac][Bd][ce] | [df]3 [ce]3 | [Ac]3 [EA][EB][Ac] | %11
w: |||||
 [Ad]3 .[Ac]3 | [ce]3 [Ac][Bd][ce] | [df]3 [fa]3 | [ce]3 [ce][ce][Bd] | [Ac]6 |] %16
w: |||||
V:2
 [A,,E,]3 [A,,C,][A,,D,][A,,E,] | [A,,A,]3 [B,,G,]3 | [E,A,]3 E,E,E, | [A,,E,]6 | %4
 [A,,E,]3 [A,,C,][A,,D,][A,,E,] | [A,,A,]3 [B,,G,]3 | [B,,B,]3 [B,,A,][B,,G,][B,,F,] | [E,G,]6 | %8
 [A,,A,]3 [A,,E,][A,,E,][A,,A,] | [A,,A,]3 [A,,A,]3 | [A,,E,]3 [A,,C,][A,,D,][A,,E,] | %11
 [A,,F,]3 .[A,,E,]3 | [A,,A,]3 [A,,E,][A,,E,][A,,A,] | [D,A,]3 [D,A,]3 | %14
 [E,A,]3 [E,A,][E,A,][E,G,] | [A,,E,]6 |] %16

